source/images/vk.svg

<svg viewBox="0 0 20 20" fill="none" xmlns="http://www.w3.org/2000/svg"><path d="M1.4 1.4c-1.4 1.41-1.4 3.67-1.4 8.2v.79c0 4.53 0 6.79 1.4 8.2 1.41 1.41 3.67 1.41 8.19 1.41h.81c4.52 0 6.78 0 8.19-1.41 1.41-1.41 1.41-3.67 1.41-8.2v-.79c0-4.53 0-6.79-1.41-8.2-1.41-1.4-3.67-1.4-8.19-1.4h-.81c-4.52 0-6.78 0-8.19 1.4Zm1.97 4.68c.11 5.2 2.71 8.32 7.27 8.32h.26v-2.97a4.13 4.13 0 0 1 3.45 2.97h2.36a6.6 6.6 0 0 0-3.42-4.17 6.4 6.4 0 0 0 2.92-4.15h-2.15c-.46 1.65-1.85 3.15-3.16 3.29v-3.29h-2.15v5.77c-1.34-.34-3.02-1.95-3.1-5.77h-2.28Z" fill="#BDBDBD" fill-rule="evenodd"/></svg>

<svg width="20.000000" height="20.000000" viewBox="0 0 20 20" fill="none" xmlns="http://www.w3.org/2000/svg" xmlns:xlink="http://www.w3.org/1999/xlink">
	<desc>
			Created with Pixso.
	</desc>
	<defs/>
	<path id="vk" d="M1.4 1.4C0 2.81 0 5.07 0 9.6L0 10.39C0 14.92 0 17.18 1.4 18.59C2.81 20 5.07 20 9.59 20L10.4 20C14.92 20 17.18 20 18.59 18.59C20 17.18 20 14.92 20 10.39L20 9.6C20 5.07 20 2.81 18.59 1.4C17.18 0 14.92 0 10.4 0L9.59 0C5.07 0 2.81 0 1.4 1.4ZM3.37 6.08C3.48 11.28 6.08 14.4 10.64 14.4L10.9 14.4L10.9 11.43C12.57 11.6 13.84 12.82 14.35 14.4L16.71 14.4C16.06 12.04 14.35 10.73 13.29 10.23C14.35 9.61 15.85 8.11 16.21 6.08L14.06 6.08C13.6 7.73 12.21 9.23 10.9 9.37L10.9 6.08L8.75 6.08L8.75 11.85C7.41 11.51 5.73 9.9 5.65 6.08L3.37 6.08Z" fill="#BDBDBD" fill-opacity="1.000000" fill-rule="evenodd"/>
</svg>
